public/icons/deepLearning.svg

<svg width="76" height="78" viewBox="0 0 76 78" fill="none" xmlns="http://www.w3.org/2000/svg">
<path d="M6.33333 0C2.84113 0 0 2.82184 0 6.29032C0 9.75881 2.84113 12.5806 6.33333 12.5806C7.9192 12.5806 9.35271 11.9778 10.4648 11.0179L22.1889 19.9103C21.9597 20.3771 21.7696 20.8625 21.662 21.3846H12.538C11.949 18.5188 9.39107 16.3548 6.33333 16.3548C2.84113 16.3548 0 19.1767 0 22.6452C0 26.1136 2.84113 28.9355 6.33333 28.9355C7.9192 28.9355 9.35271 28.3326 10.4648 27.3727L15.012 30.8226L10.4648 34.2724C9.35271 33.3125 7.9192 32.7097 6.33333 32.7097C2.84113 32.7097 0 35.5315 0 39C0 42.4685 2.84113 45.2903 6.33333 45.2903C7.9192 45.2903 9.35271 44.6875 10.4648 43.7276L15.012 47.1774L10.4648 50.6273C9.35271 49.6674 7.9192 49.0645 6.33333 49.0645C2.84113 49.0645 0 51.8864 0 55.3548C0 58.8233 2.84113 61.6452 6.33333 61.6452C9.39107 61.6452 11.949 59.48 12.538 56.6129H21.662C21.7696 57.135 21.9597 57.6229 22.1889 58.0897L10.4648 66.9797C9.35271 66.021 7.9192 65.4194 6.33333 65.4194C2.84113 65.4194 0 68.2412 0 71.7097C0 75.1782 2.84113 78 6.33333 78C9.82553 78 12.6667 75.1782 12.6667 71.7097C12.6667 70.7259 12.4189 69.8052 12.0111 68.9749L23.7352 60.0849C24.8473 61.0435 26.2808 61.6452 27.8667 61.6452C30.9244 61.6452 33.4824 59.48 34.0714 56.6129H40.5333V59.129C40.5333 61.2099 42.2383 62.9032 44.3333 62.9032C46.4284 62.9032 48.1333 61.2099 48.1333 59.129H50.1422L64.9711 73.8572C65.208 74.0938 65.531 74.2258 65.8667 74.2258H68.6326C69.157 75.6864 70.5508 76.7419 72.2 76.7419C74.2951 76.7419 76 75.0486 76 72.9677C76 70.8869 74.2951 69.1936 72.2 69.1936C70.5508 69.1936 69.157 70.2491 68.6326 71.7097H66.3911L51.5622 56.9815C51.3254 56.745 51.0023 56.6129 50.6667 56.6129H48.1333V52.8387H53.9422L63.7044 62.5347C63.9413 62.7712 64.2643 62.9032 64.6 62.9032H68.6326C69.157 64.3638 70.5508 65.4194 72.2 65.4194C74.2951 65.4194 76 63.726 76 61.6452C76 59.5643 74.2951 57.871 72.2 57.871C70.5508 57.871 69.157 58.9265 68.6326 60.3871H65.1245L55.3622 50.6912C55.1254 50.4546 54.8023 50.3226 54.4667 50.3226H48.1333V46.5484H59.0089L63.7044 51.2121C63.9413 51.4486 64.2643 51.5806 64.6 51.5806H68.6326C69.157 53.0413 70.5508 54.0968 72.2 54.0968C74.2951 54.0968 76 52.4034 76 50.3226C76 48.2417 74.2951 46.5484 72.2 46.5484C70.5508 46.5484 69.157 47.6039 68.6326 49.0645H65.1245L60.4289 44.4008C60.192 44.1643 59.869 44.0323 59.5333 44.0323H48.1333V40.2581H68.6326C69.157 41.7187 70.5508 42.7742 72.2 42.7742C74.2951 42.7742 76 41.0808 76 39C76 36.9192 74.2951 35.2258 72.2 35.2258C70.5508 35.2258 69.157 36.2813 68.6326 37.7419H48.1333V33.9677H59.5333C59.869 33.9677 60.192 33.8357 60.4289 33.5992L65.1245 28.9355H68.6326C69.157 30.3961 70.5508 31.4516 72.2 31.4516C74.2951 31.4516 76 29.7583 76 27.6774C76 25.5966 74.2951 23.9032 72.2 23.9032C70.5508 23.9032 69.157 24.9587 68.6326 26.4194H64.6C64.2643 26.4194 63.9413 26.5514 63.7044 26.7879L59.0089 31.4516H48.1333V27.6774H54.4667C54.8023 27.6774 55.1254 27.5454 55.3622 27.3088L65.1245 17.6129H68.6326C69.157 19.0735 70.5508 20.129 72.2 20.129C74.2951 20.129 76 18.4357 76 16.3548C76 14.274 74.2951 12.5806 72.2 12.5806C70.5508 12.5806 69.157 13.6362 68.6326 15.0968H64.6C64.2643 15.0968 63.9413 15.2288 63.7044 15.4653L53.9422 25.1613H48.1333V21.3871H50.6667C51.0023 21.3871 51.3254 21.255 51.5622 21.0185L66.3911 6.29032H68.6326C69.157 7.75094 70.5508 8.80645 72.2 8.80645C74.2951 8.80645 76 7.1131 76 5.03226C76 2.95142 74.2951 1.25806 72.2 1.25806C70.5508 1.25806 69.157 2.31358 68.6326 3.77419H65.8667C65.531 3.77419 65.208 3.90625 64.9711 4.14277L50.1422 18.871H48.1333V17.6129C48.1333 15.5321 46.4284 13.8387 44.3333 13.8387C42.2383 13.8387 40.5333 15.5321 40.5333 17.6129V21.3871H34.0714C33.4824 18.52 30.9257 16.3548 27.8667 16.3548C26.2808 16.3548 24.8473 16.9577 23.7352 17.9176L12.0111 9.02514C12.4189 8.19356 12.6667 7.27413 12.6667 6.29032C12.6667 2.82184 9.82553 0 6.33333 0ZM6.33333 2.51613C8.4284 2.51613 10.1333 4.20948 10.1333 6.29032C10.1333 8.37116 8.4284 10.0645 6.33333 10.0645C4.23827 10.0645 2.53333 8.37116 2.53333 6.29032C2.53333 4.20948 4.23827 2.51613 6.33333 2.51613ZM72.2 3.77419C72.8979 3.77419 73.4667 4.33781 73.4667 5.03226C73.4667 5.72671 72.8979 6.29032 72.2 6.29032C71.5021 6.29032 70.9333 5.72671 70.9333 5.03226C70.9333 4.33781 71.5021 3.77419 72.2 3.77419ZM72.2 15.0968C72.8979 15.0968 73.4667 15.6604 73.4667 16.3548C73.4667 17.0493 72.8979 17.6129 72.2 17.6129C71.5021 17.6129 70.9333 17.0493 70.9333 16.3548C70.9333 15.6604 71.5021 15.0968 72.2 15.0968ZM44.3333 16.3548C45.0313 16.3548 45.6 16.9185 45.6 17.6129V59.129C45.6 59.8235 45.0313 60.3871 44.3333 60.3871C43.6354 60.3871 43.0667 59.8235 43.0667 59.129V17.6129C43.0667 16.9185 43.6354 16.3548 44.3333 16.3548ZM6.33333 18.871C8.4284 18.871 10.1333 20.5643 10.1333 22.6452C10.1333 24.726 8.4284 26.4194 6.33333 26.4194C4.23827 26.4194 2.53333 24.726 2.53333 22.6452C2.53333 20.5643 4.23827 18.871 6.33333 18.871ZM27.8667 18.871C29.9617 18.871 31.6667 20.5643 31.6667 22.6452C31.6667 24.726 29.9617 26.4194 27.8667 26.4194C25.7716 26.4194 24.0667 24.726 24.0667 22.6452C24.0667 20.5643 25.7716 18.871 27.8667 18.871ZM12.538 23.9032H21.662C21.7696 24.4253 21.9597 24.9132 22.1889 25.38L17.1 29.2402L12.0111 25.38C12.2403 24.9132 12.4304 24.4253 12.538 23.9032ZM34.0714 23.9032H40.5333V37.7419H34.0714C33.4824 34.8748 30.9257 32.7097 27.8667 32.7097C26.2808 32.7097 24.8473 33.3125 23.7352 34.2724L19.188 30.8226L23.7352 27.3727C24.8473 28.3326 26.2808 28.9355 27.8667 28.9355C30.9244 28.9355 33.4824 26.7704 34.0714 23.9032ZM72.2 26.4194C72.8979 26.4194 73.4667 26.983 73.4667 27.6774C73.4667 28.3719 72.8979 28.9355 72.2 28.9355C71.5021 28.9355 70.9333 28.3719 70.9333 27.6774C70.9333 26.983 71.5021 26.4194 72.2 26.4194ZM35.4667 27.6774V30.1935H38V27.6774H35.4667ZM17.1 32.4074L22.1889 36.2652C21.9597 36.7319 21.7696 37.2198 21.662 37.7419H12.538C12.4304 37.2198 12.2403 36.7319 12.0111 36.2652L17.1 32.4074ZM35.4667 32.7097V35.2258H38V32.7097H35.4667ZM6.33333 35.2258C8.4284 35.2258 10.1333 36.9192 10.1333 39C10.1333 41.0808 8.4284 42.7742 6.33333 42.7742C4.23827 42.7742 2.53333 41.0808 2.53333 39C2.53333 36.9192 4.23827 35.2258 6.33333 35.2258ZM27.8667 35.2258C29.9617 35.2258 31.6667 36.9192 31.6667 39C31.6667 41.0808 29.9617 42.7742 27.8667 42.7742C25.7716 42.7742 24.0667 41.0808 24.0667 39C24.0667 36.9192 25.7716 35.2258 27.8667 35.2258ZM72.2 37.7419C72.8979 37.7419 73.4667 38.3055 73.4667 39C73.4667 39.6945 72.8979 40.2581 72.2 40.2581C71.5021 40.2581 70.9333 39.6945 70.9333 39C70.9333 38.3055 71.5021 37.7419 72.2 37.7419ZM12.538 40.2581H21.662C21.7696 40.7802 21.9597 41.2681 22.1889 41.7348L17.1 45.595L12.0111 41.7348C12.2403 41.2681 12.4304 40.7802 12.538 40.2581ZM34.0714 40.2581H40.5333V54.0968H34.0714C33.4824 51.2296 30.9257 49.0645 27.8667 49.0645C26.2808 49.0645 24.8473 49.6674 23.7352 50.6273L19.188 47.1774L23.7352 43.7276C24.8473 44.6875 26.2808 45.2903 27.8667 45.2903C30.9244 45.2903 33.4824 43.1252 34.0714 40.2581ZM35.4667 42.7742V45.2903H38V42.7742H35.4667ZM35.4667 47.8064V50.3226H38V47.8064H35.4667ZM17.1 48.7623L22.1889 52.62C21.9597 53.0868 21.7696 53.5747 21.662 54.0968H12.538C12.4304 53.5747 12.2403 53.0868 12.0111 52.62L17.1 48.7623ZM72.2 49.0645C72.8979 49.0645 73.4667 49.6281 73.4667 50.3226C73.4667 51.017 72.8979 51.5806 72.2 51.5806C71.5021 51.5806 70.9333 51.017 70.9333 50.3226C70.9333 49.6281 71.5021 49.0645 72.2 49.0645ZM6.33333 51.5806C8.4284 51.5806 10.1333 53.274 10.1333 55.3548C10.1333 57.4357 8.4284 59.129 6.33333 59.129C4.23827 59.129 2.53333 57.4357 2.53333 55.3548C2.53333 53.274 4.23827 51.5806 6.33333 51.5806ZM27.8667 51.5806C29.9617 51.5806 31.6667 53.274 31.6667 55.3548C31.6667 57.4357 29.9617 59.129 27.8667 59.129C25.7716 59.129 24.0667 57.4357 24.0667 55.3548C24.0667 53.274 25.7716 51.5806 27.8667 51.5806ZM72.2 60.3871C72.8979 60.3871 73.4667 60.9507 73.4667 61.6452C73.4667 62.3396 72.8979 62.9032 72.2 62.9032C71.5021 62.9032 70.9333 62.3396 70.9333 61.6452C70.9333 60.9507 71.5021 60.3871 72.2 60.3871ZM6.33333 67.9355C8.4284 67.9355 10.1333 69.6288 10.1333 71.7097C10.1333 73.7905 8.4284 75.4839 6.33333 75.4839C4.23827 75.4839 2.53333 73.7905 2.53333 71.7097C2.53333 69.6288 4.23827 67.9355 6.33333 67.9355ZM72.2 71.7097C72.8979 71.7097 73.4667 72.2733 73.4667 72.9677C73.4667 73.6622 72.8979 74.2258 72.2 74.2258C71.5021 74.2258 70.9333 73.6622 70.9333 72.9677C70.9333 72.2733 71.5021 71.7097 72.2 71.7097Z" fill="#FBFBFB" fill-opacity="0.8"/>
</svg>

<svg xmlns="http://www.w3.org/2000/svg" fill="none" width="76" height="78" viewBox="0 0 76 78"><path d="M6.333 0C2.841 0 0 2.822 0 6.29c0 3.469 2.841 6.29 6.333 6.29 1.586 0 3.02-.602 4.132-1.562l11.724 8.892c-.23.467-.42.953-.527 1.475h-9.124c-.589-2.866-3.147-5.03-6.205-5.03-3.492 0-6.333 2.822-6.333 6.29 0 3.469 2.841 6.29 6.333 6.29 1.586 0 3.02-.602 4.132-1.562l4.547 3.45-4.547 3.45c-1.112-.96-2.546-1.563-4.132-1.563C2.841 32.71 0 35.532 0 39s2.841 6.29 6.333 6.29c1.586 0 3.02-.602 4.132-1.562l4.547 3.45-4.547 3.45c-1.112-.96-2.546-1.563-4.132-1.563-3.492 0-6.333 2.821-6.333 6.29 0 3.468 2.841 6.29 6.333 6.29a6.334 6.334 0 0 0 6.205-5.032h9.124c.108.522.298 1.01.527 1.477l-11.724 8.89c-1.112-.959-2.546-1.56-4.132-1.56C2.841 65.42 0 68.24 0 71.71 0 75.178 2.841 78 6.333 78c3.493 0 6.334-2.822 6.334-6.29 0-.984-.248-1.905-.656-2.735l11.724-8.89c1.112.959 2.546 1.56 4.132 1.56a6.334 6.334 0 0 0 6.204-5.032h6.462v2.516c0 2.08 1.705 3.774 3.8 3.774 2.095 0 3.8-1.693 3.8-3.774h2.01L64.97 73.857c.237.237.56.369.896.369h2.766a3.794 3.794 0 0 0 3.567 2.516c2.095 0 3.8-1.693 3.8-3.774s-1.705-3.774-3.8-3.774a3.794 3.794 0 0 0-3.567 2.516H66.39L51.562 56.982a1.268 1.268 0 0 0-.895-.37h-2.534V52.84h5.81l9.761 9.696c.237.236.56.368.896.368h4.033A3.794 3.794 0 0 0 72.2 65.42c2.095 0 3.8-1.693 3.8-3.774 0-2.08-1.705-3.774-3.8-3.774a3.794 3.794 0 0 0-3.567 2.516h-3.508l-9.763-9.696a1.267 1.267 0 0 0-.895-.368h-6.334v-3.775H59.01l4.695 4.664c.237.237.56.369.896.369h4.033a3.794 3.794 0 0 0 3.567 2.516c2.095 0 3.8-1.694 3.8-3.774 0-2.081-1.705-3.775-3.8-3.775a3.794 3.794 0 0 0-3.567 2.517h-3.508L60.428 44.4a1.268 1.268 0 0 0-.896-.369h-11.4v-3.774h20.5a3.794 3.794 0 0 0 3.567 2.516c2.095 0 3.8-1.693 3.8-3.774 0-2.08-1.705-3.774-3.8-3.774a3.794 3.794 0 0 0-3.567 2.516h-20.5v-3.774h11.4c.336 0 .659-.132.896-.369l4.695-4.663h3.509a3.794 3.794 0 0 0 3.567 2.516c2.095 0 3.8-1.694 3.8-3.775 0-2.08-1.705-3.774-3.8-3.774a3.794 3.794 0 0 0-3.567 2.516H64.6c-.336 0-.659.132-.896.369l-4.695 4.664H48.133v-3.775h6.334c.335 0 .658-.132.895-.368l9.762-9.696h3.509a3.794 3.794 0 0 0 3.567 2.516c2.095 0 3.8-1.693 3.8-3.774s-1.705-3.774-3.8-3.774a3.794 3.794 0 0 0-3.567 2.516H64.6a1.27 1.27 0 0 0-.896.368l-9.762 9.696h-5.809v-3.774h2.534c.335 0 .658-.132.895-.369L66.392 6.29h2.24A3.794 3.794 0 0 0 72.2 8.806c2.095 0 3.8-1.693 3.8-3.774 0-2.08-1.705-3.774-3.8-3.774a3.794 3.794 0 0 0-3.567 2.516h-2.766c-.336 0-.659.132-.896.369L50.142 18.87h-2.009v-1.258c0-2.08-1.705-3.774-3.8-3.774-2.095 0-3.8 1.693-3.8 3.774v3.774h-6.462a6.333 6.333 0 0 0-6.204-5.032c-1.586 0-3.02.603-4.132 1.563L12.011 9.025a6.182 6.182 0 0 0 .656-2.735C12.667 2.822 9.826 0 6.333 0zm0 2.516c2.095 0 3.8 1.693 3.8 3.774s-1.705 3.775-3.8 3.775c-2.095 0-3.8-1.694-3.8-3.775 0-2.08 1.705-3.774 3.8-3.774zM72.2 3.774c.698 0 1.267.564 1.267 1.258 0 .695-.57 1.258-1.267 1.258a1.264 1.264 0 0 1-1.267-1.258c0-.694.57-1.258 1.267-1.258zm0 11.323c.698 0 1.267.563 1.267 1.258 0 .694-.57 1.258-1.267 1.258a1.264 1.264 0 0 1-1.267-1.258c0-.695.57-1.258 1.267-1.258zm-27.867 1.258c.698 0 1.267.564 1.267 1.258v41.516c0 .695-.569 1.258-1.267 1.258a1.264 1.264 0 0 1-1.266-1.258V17.613c0-.694.568-1.258 1.266-1.258zm-38 2.516c2.095 0 3.8 1.693 3.8 3.774s-1.705 3.774-3.8 3.774c-2.095 0-3.8-1.693-3.8-3.774 0-2.08 1.705-3.774 3.8-3.774zm21.534 0c2.095 0 3.8 1.693 3.8 3.774s-1.705 3.774-3.8 3.774c-2.095 0-3.8-1.693-3.8-3.774 0-2.08 1.705-3.774 3.8-3.774zm-15.329 5.032h9.124c.108.522.298 1.01.527 1.477L17.1 29.24l-5.089-3.86c.23-.467.42-.955.527-1.477zm21.533 0h6.462v13.839h-6.462a6.333 6.333 0 0 0-6.204-5.032c-1.586 0-3.02.602-4.132 1.562l-4.547-3.45 4.547-3.45c1.112.96 2.546 1.564 4.132 1.564a6.334 6.334 0 0 0 6.204-5.033zM72.2 26.42c.698 0 1.267.564 1.267 1.258 0 .695-.57 1.259-1.267 1.259a1.264 1.264 0 0 1-1.267-1.259c0-.694.57-1.258 1.267-1.258zm-36.733 1.258v2.517H38v-2.517h-2.533zM17.1 32.407l5.089 3.858a6.18 6.18 0 0 0-.527 1.477h-9.124a6.18 6.18 0 0 0-.527-1.477l5.089-3.858zm18.367.303v2.516H38V32.71h-2.533zM6.333 35.226c2.095 0 3.8 1.693 3.8 3.774 0 2.08-1.705 3.774-3.8 3.774-2.095 0-3.8-1.693-3.8-3.774 0-2.08 1.705-3.774 3.8-3.774zm21.534 0c2.095 0 3.8 1.693 3.8 3.774 0 2.08-1.705 3.774-3.8 3.774-2.095 0-3.8-1.693-3.8-3.774 0-2.08 1.705-3.774 3.8-3.774zM72.2 37.742c.698 0 1.267.564 1.267 1.258 0 .694-.57 1.258-1.267 1.258A1.264 1.264 0 0 1 70.933 39c0-.694.57-1.258 1.267-1.258zm-59.662 2.516h9.124a6.18 6.18 0 0 0 .527 1.477l-5.089 3.86-5.089-3.86c.23-.467.42-.955.527-1.477zm21.533 0h6.462v13.839h-6.462a6.333 6.333 0 0 0-6.204-5.032c-1.586 0-3.02.602-4.132 1.562l-4.547-3.45 4.547-3.45c1.112.96 2.546 1.563 4.132 1.563a6.334 6.334 0 0 0 6.204-5.032zm1.396 2.516v2.516H38v-2.516h-2.533zm0 5.032v2.517H38v-2.517h-2.533zm-18.367.956 5.089 3.858c-.23.467-.42.955-.527 1.477h-9.124a6.181 6.181 0 0 0-.527-1.477l5.089-3.858zm55.1.303c.698 0 1.267.563 1.267 1.258 0 .694-.57 1.258-1.267 1.258a1.264 1.264 0 0 1-1.267-1.258c0-.695.57-1.258 1.267-1.258zM6.333 51.58c2.095 0 3.8 1.693 3.8 3.774 0 2.08-1.705 3.774-3.8 3.774-2.095 0-3.8-1.693-3.8-3.774s1.705-3.774 3.8-3.774zm21.534 0c2.095 0 3.8 1.693 3.8 3.774 0 2.08-1.705 3.774-3.8 3.774-2.095 0-3.8-1.693-3.8-3.774s1.705-3.774 3.8-3.774zM72.2 60.387c.698 0 1.267.564 1.267 1.258 0 .695-.57 1.258-1.267 1.258a1.264 1.264 0 0 1-1.267-1.258c0-.694.57-1.258 1.267-1.258zM6.333 67.936c2.095 0 3.8 1.693 3.8 3.774 0 2.08-1.705 3.774-3.8 3.774-2.095 0-3.8-1.694-3.8-3.774 0-2.081 1.705-3.774 3.8-3.774zM72.2 71.71c.698 0 1.267.563 1.267 1.258 0 .694-.57 1.258-1.267 1.258a1.264 1.264 0 0 1-1.267-1.258c0-.695.57-1.258 1.267-1.258z" fill="#FBFBFB" fill-opacity=".8"/></svg>
